dist/img/icons/arrow-right.svg

<svg width="30" height="39" viewBox="0 0 30 39" fill="none" xmlns="http://www.w3.org/2000/svg">
<path d="M29.6512 19.4997C29.6512 19.812 29.4517 20.1636 29.1531 20.3982L5.93029 38.6015C5.63098 38.8361 5.18308 38.992 4.78401 38.992C4.38494 38.992 3.93703 38.8356 3.63773 38.6015L1.14633 36.6486C0.847031 36.414 0.648193 36.1017 0.648193 35.7501C0.648193 35.4378 0.847728 35.0862 1.14633 34.8516L20.7308 19.5003L1.14633 4.14894C0.847031 3.91433 0.648193 3.56323 0.648193 3.25042C0.648193 2.93761 0.847728 2.58651 1.14633 2.3519L3.63773 0.399014C3.93703 0.164405 4.38494 0.00854492 4.78401 0.00854492C5.18308 0.00854492 5.63098 0.164952 5.93029 0.399014L29.1531 18.6023C29.4524 18.8369 29.6512 19.188 29.6512 19.5008V19.4997Z" fill="#666666"/>
</svg>

<svg width="30" height="39" fill="none" xmlns="http://www.w3.org/2000/svg"><path d="M29.651 19.5c0 .312-.2.664-.498.898L5.93 38.602c-.299.234-.747.39-1.146.39-.4 0-.847-.156-1.146-.39l-2.492-1.953c-.299-.235-.498-.547-.498-.899 0-.312.2-.664.498-.898L20.731 19.5 1.146 4.15c-.299-.236-.498-.587-.498-.9 0-.312.2-.663.498-.898L3.638.399c.299-.235.747-.39 1.146-.39.4 0 .847.156 1.146.39l23.223 18.203c.3.235.498.586.498.899V19.5z" fill="#666"/></svg>
